packages/core/src/svgs/libre.svg

<svg width="24" height="24" viewBox="0 0 24 24" fill="none" xmlns="http://www.w3.org/2000/svg">
<g clip-path="url(#clip0_31_13118)">
<path d="M0 0H24V24H0V0Z" fill="#F0F3FA"/>
<path d="M16.0972 6.91714L14.8714 4.24285C14.7472 3.95143 14.5972 3.86571 14.46 3.86143C14.28 3.85714 14.1343 3.99428 14.1343 3.99428C14.1343 3.99428 6.9643 10.4357 6.07716 11.3571C5.69144 11.7557 5.56287 12.1843 5.57144 12.54C5.58001 12.9986 5.75144 13.2857 5.75144 13.2857C6.52287 14.8371 7.18716 16.4786 7.94144 18.0514C8.37001 18.8743 9.40287 18.8571 9.40287 18.8571H16.7143C16.9286 18.8571 17.1429 18.6086 17.1429 18.4586C17.1429 18.2871 17.0529 18.1286 17.0529 18.1286C17.0529 18.1286 15.8786 15.3429 15.51 14.7086C15.24 14.1429 14.6143 14.1429 14.6143 14.1429H9.85716C11.8072 12.1414 15.4586 9.28285 15.9429 8.77285C16.6629 8.03143 16.0972 6.91714 16.0972 6.91714Z" fill="#00B7FF"/>
<path d="M5.75146 13.2856C5.75146 13.2856 6.37718 14.1428 7.08004 14.1428H10.2858C9.45861 14.9999 8.29718 15.6256 8.29718 15.6256C8.29718 15.6256 7.53432 16.3028 7.71432 17.5714L5.75146 13.2856Z" fill="#0061E7"/>
</g>
<defs>
<clipPath id="clip0_31_13118">
<rect width="24" height="24" fill="white"/>
</clipPath>
</defs>
</svg>

<svg xmlns="http://www.w3.org/2000/svg" width="24" height="24" fill="none" viewBox="0 0 24 24"><g clip-path="url(#a)"><path fill="#F0F3FA" d="M0 0h24v24H0z"/><path fill="#00B7FF" d="m16.097 6.917-1.226-2.674c-.124-.292-.274-.377-.411-.382-.18-.004-.326.133-.326.133s-7.17 6.442-8.057 7.363c-.386.399-.514.827-.506 1.183.009.459.18.746.18.746.772 1.551 1.436 3.193 2.19 4.765.429.823 1.462.806 1.462.806h7.311c.215 0 .429-.248.429-.398 0-.172-.09-.33-.09-.33s-1.174-2.786-1.543-3.42c-.27-.566-.896-.566-.896-.566H9.857c1.95-2.002 5.602-4.86 6.086-5.37.72-.742.154-1.856.154-1.856"/><path fill="#0061E7" d="M5.751 13.286s.626.857 1.329.857h3.206c-.827.857-1.989 1.483-1.989 1.483s-.763.677-.583 1.945z"/></g><defs><clipPath id="a"><path fill="#fff" d="M0 0h24v24H0z"/></clipPath></defs></svg>
